src/assets/icons/days,simple,saturday.svg

<svg width="48" height="48" viewBox="0 0 48 48" fill="none" xmlns="http://www.w3.org/2000/svg">
<rect opacity="0.2" x="5" y="5" width="38" height="38" rx="4" fill="black"/>
<path d="M5 13C5 9.22876 5 7.34315 6.17157 6.17157C7.34315 5 9.22876 5 13 5H35C38.7712 5 40.6569 5 41.8284 6.17157C43 7.34315 43 9.22876 43 13V15H5V13Z" fill="black"/>
<path d="M20.8013 25.6378H23.7488C23.7061 23.0455 21.5755 21.2557 18.3368 21.2557C15.1479 21.2557 12.8113 23.017 12.8255 25.6591C12.8184 27.804 14.3311 29.0327 16.7885 29.6222L18.3723 30.0199C19.9561 30.4034 20.8368 30.858 20.8439 31.8381C20.8368 32.9034 19.8283 33.6278 18.2658 33.6278C16.6678 33.6278 15.5172 32.8892 15.4178 31.4332H12.4419C12.5201 34.5795 14.7715 36.206 18.3013 36.206C21.8525 36.206 23.9405 34.5085 23.9476 31.8452C23.9405 29.4233 22.1152 28.1378 19.5868 27.5696L18.28 27.2571C17.0158 26.9659 15.9576 26.4972 15.9789 25.4531C15.9789 24.5156 16.8098 23.8267 18.3155 23.8267C19.7857 23.8267 20.6877 24.4943 20.8013 25.6378ZM29.0701 36.206C30.6824 36.206 31.7264 35.5028 32.2591 34.4872H32.3443V36H35.2136V28.642C35.2136 26.0426 33.0119 24.9489 30.5829 24.9489C27.9693 24.9489 26.2505 26.1989 25.8315 28.1875L28.6298 28.4148C28.8358 27.6903 29.4821 27.1577 30.5687 27.1577C31.5985 27.1577 32.188 27.6761 32.188 28.571V28.6136C32.188 29.3168 31.4423 29.4091 29.546 29.5938C27.3869 29.7926 25.448 30.517 25.448 32.9531C25.448 35.1122 26.9892 36.206 29.0701 36.206ZM29.9366 34.1179C29.0062 34.1179 28.3386 33.6847 28.3386 32.8537C28.3386 32.0014 29.0417 31.5824 30.1071 31.4332C30.7676 31.3409 31.8471 31.1847 32.2093 30.9432V32.1009C32.2093 33.2443 31.2647 34.1179 29.9366 34.1179Z" fill="black"/>
</svg>

<svg xmlns="http://www.w3.org/2000/svg" width="48" height="48" fill="none" viewBox="0 0 48 48">
  <rect width="38" height="38" x="5" y="5" fill="#000" opacity=".2" rx="4"/>
  <path fill="#000" d="M5 13c0-3.771 0-5.657 1.172-6.828C7.343 5 9.229 5 13 5h22c3.771 0 5.657 0 6.828 1.172C43 7.343 43 9.229 43 13v2H5v-2zM20.801 25.638h2.948c-.043-2.593-2.173-4.382-5.412-4.382-3.19 0-5.526 1.761-5.511 4.403-.008 2.145 1.505 3.374 3.962 3.963l1.584.398c1.584.383 2.465.838 2.472 1.818-.007 1.065-1.016 1.79-2.578 1.79-1.598 0-2.749-.739-2.848-2.195h-2.976c.078 3.147 2.33 4.773 5.86 4.773 3.55 0 5.639-1.698 5.646-4.36-.008-2.423-1.833-3.708-4.361-4.276l-1.307-.313c-1.264-.291-2.322-.76-2.301-1.804 0-.937.83-1.626 2.337-1.626 1.47 0 2.372.667 2.485 1.81zm8.27 10.568c1.611 0 2.655-.703 3.188-1.719h.085V36h2.87v-7.358c0-2.6-2.202-3.693-4.631-3.693-2.614 0-4.332 1.25-4.752 3.238l2.799.228c.206-.725.852-1.257 1.939-1.257 1.03 0 1.619.518 1.619 1.413v.043c0 .703-.746.795-2.642.98-2.16.199-4.098.923-4.098 3.36 0 2.158 1.541 3.252 3.622 3.252zm.866-2.088c-.93 0-1.598-.433-1.598-1.264 0-.853.703-1.272 1.768-1.42.66-.093 1.74-.25 2.102-.49V32.1c0 1.143-.944 2.017-2.272 2.017z"/>
</svg>
